src/assets/svg/create.svg

<svg width="29" height="22" viewBox="0 0 29 22" fill="none" xmlns="http://www.w3.org/2000/svg">
<path d="M14.4385 0C6.46743 0 0 3.63444 0 8.12166V14.4385C0 18.4271 6.46743 21.6578 14.4385 21.6578C22.4096 21.6578 28.877 18.4271 28.877 14.4385V8.12166C28.877 3.63444 22.4096 0 14.4385 0ZM3.60963 17.0673C2.46413 16.2433 1.80481 15.3229 1.80481 14.4385V12.0505C2.35144 12.5925 2.95678 13.0718 3.60963 13.4797V17.0673ZM8.12166 19.0594C7.19432 18.8168 6.28879 18.4974 5.41444 18.1045V14.456C6.29058 14.8454 7.19573 15.166 8.12166 15.4148V19.0594ZM13.5361 19.8309C12.3255 19.793 11.1192 19.6684 9.92647 19.4581V15.8333C11.1191 16.0435 12.3255 16.1666 13.5361 16.2016V19.8309ZM18.9505 19.4581C17.7578 19.6689 16.5515 19.7941 15.3409 19.8326V16.2016C16.5515 16.1666 17.7579 16.0435 18.9505 15.8333V19.4581ZM23.4626 18.1045C22.5882 18.4968 21.6826 18.8156 20.7553 19.0577V15.4142C21.6813 15.1654 22.5864 14.8448 23.4626 14.4554V18.1045ZM27.0722 14.4385C27.0722 15.3229 26.4129 16.2433 25.2674 17.0673V13.4797C25.9203 13.0713 26.5257 12.5914 27.0722 12.0488V14.4385ZM14.4385 14.4385C6.99365 14.4385 1.80481 11.1109 1.80481 8.12166C1.80481 5.13244 6.99365 1.80481 14.4385 1.80481C21.8834 1.80481 27.0722 5.13244 27.0722 8.12166C27.0722 11.1109 21.8834 14.4385 14.4385 14.4385Z" fill="#BDCBDA"/>
<path d="M19.5417 8.66667H15.4167V11.6667C15.4167 11.8508 15.2116 12 14.9583 12H14.0417C13.7884 12 13.5833 11.8508 13.5833 11.6667V8.66667H9.45833C9.2051 8.66667 9 8.5175 9 8.33333V7.66667C9 7.4825 9.2051 7.33333 9.45833 7.33333H13.5833V4.33333C13.5833 4.14917 13.7884 4 14.0417 4H14.9583C15.2116 4 15.4167 4.14917 15.4167 4.33333V7.33333H19.5417C19.7949 7.33333 20 7.4825 20 7.66667V8.33333C20 8.5175 19.7949 8.66667 19.5417 8.66667Z" fill="#BDCBDA"/>
</svg>

<?xml version="1.0" encoding="utf-8"?>
<!-- Generator: Adobe Illustrator 25.0.1, SVG Export Plug-In . SVG Version: 6.00 Build 0)  -->
<svg version="1.1" id="Ebene_1" xmlns="http://www.w3.org/2000/svg" xmlns:xlink="http://www.w3.org/1999/xlink" x="0px" y="0px"
	 viewBox="0 0 29 22" style="enable-background:new 0 0 29 22;" xml:space="preserve">
<style type="text/css">
	.st0{fill:#FFFFFF;}
</style>
<path class="st0" d="M14.4,0C6.5,0,0,3.6,0,8.1v6.3c0,4,6.5,7.2,14.4,7.2c8,0,14.4-3.2,14.4-7.2V8.1C28.9,3.6,22.4,0,14.4,0z
	 M3.6,17.1c-1.1-0.8-1.8-1.7-1.8-2.6v-2.4c0.5,0.5,1.2,1,1.8,1.4V17.1z M8.1,19.1c-0.9-0.2-1.8-0.6-2.7-1v-3.6
	c0.9,0.4,1.8,0.7,2.7,1V19.1z M13.5,19.8c-1.2,0-2.4-0.2-3.6-0.4v-3.6c1.2,0.2,2.4,0.3,3.6,0.4V19.8z M19,19.5
	c-1.2,0.2-2.4,0.3-3.6,0.4v-3.6c1.2,0,2.4-0.2,3.6-0.4V19.5z M23.5,18.1c-0.9,0.4-1.8,0.7-2.7,1v-3.6c0.9-0.2,1.8-0.6,2.7-1V18.1z
	 M27.1,14.4c0,0.9-0.7,1.8-1.8,2.6v-3.6c0.7-0.4,1.3-0.9,1.8-1.4V14.4z M14.4,14.4C7,14.4,1.8,11.1,1.8,8.1c0-3,5.2-6.3,12.6-6.3
	c7.4,0,12.6,3.3,12.6,6.3C27.1,11.1,21.9,14.4,14.4,14.4z"/>
<path class="st0" d="M19.5,8.7h-4.1v3c0,0.2-0.2,0.3-0.5,0.3H14c-0.3,0-0.5-0.1-0.5-0.3v-3H9.5C9.2,8.7,9,8.5,9,8.3V7.7
	c0-0.2,0.2-0.3,0.5-0.3h4.1v-3C13.6,4.1,13.8,4,14,4H15c0.3,0,0.5,0.1,0.5,0.3v3h4.1c0.3,0,0.5,0.1,0.5,0.3v0.7
	C20,8.5,19.8,8.7,19.5,8.7z"/>
</svg>
